images/nav.svg

<svg width="42" height="42" viewBox="0 0 42 42" fill="none" xmlns="http://www.w3.org/2000/svg">
<path d="M20.6851 20.265C19.5568 20.265 18.4538 19.9304 17.5156 19.3035C16.5774 18.6766 15.8462 17.7856 15.4144 16.7432C14.9826 15.7007 14.8696 14.5537 15.0897 13.447C15.3099 12.3403 15.8532 11.3238 16.6511 10.5259C17.4489 9.72808 18.4655 9.18473 19.5721 8.9646C20.6788 8.74447 21.8259 8.85745 22.8683 9.28925C23.9108 9.72105 24.8018 10.4523 25.4286 11.3905C26.0555 12.3286 26.3901 13.4316 26.3901 14.56C26.3901 16.073 25.789 17.5241 24.7191 18.594C23.6493 19.6639 22.1982 20.265 20.6851 20.265ZM20.6851 10.605C19.9029 10.605 19.1382 10.8369 18.4878 11.2715C17.8374 11.7061 17.3305 12.3238 17.0312 13.0465C16.7318 13.7692 16.6535 14.5644 16.8061 15.3316C16.9587 16.0988 17.3354 16.8035 17.8885 17.3566C18.4416 17.9097 19.1463 18.2864 19.9135 18.439C20.6807 18.5916 21.4759 18.5133 22.1986 18.2139C22.9213 17.9146 23.539 17.4077 23.9736 16.7573C24.4081 16.1069 24.6401 15.3422 24.6401 14.56C24.6401 13.5111 24.2234 12.5051 23.4817 11.7634C22.74 11.0217 21.734 10.605 20.6851 10.605Z" fill="#F38281"/>
<path d="M30.5551 17.3951H30.4151C30.2002 17.3411 30.0131 17.209 29.8902 17.0247C29.7673 16.8403 29.7173 16.6168 29.7501 16.3976V16.1176C29.7559 15.9952 29.7559 15.8726 29.7501 15.7501C29.7673 15.5697 29.7673 15.3881 29.7501 15.2076C29.7501 14.7526 29.7501 14.5251 29.7501 14.5251C29.7501 12.172 28.8153 9.91525 27.1514 8.25133C25.4875 6.58742 23.2307 5.65264 20.8776 5.65264C18.5245 5.65264 16.2677 6.58742 14.6038 8.25133C12.9399 9.91525 12.0051 12.172 12.0051 14.5251C12.0051 14.5251 12.0051 14.7526 12.0051 15.0851C12.0539 15.3176 12.1364 15.5416 12.2501 15.7501V16.1876V16.4676C12.2673 16.5825 12.2618 16.6997 12.2337 16.8125C12.2057 16.9252 12.1557 17.0314 12.0866 17.1248C12.0176 17.2182 11.9308 17.2972 11.8312 17.3571C11.7316 17.417 11.6213 17.4566 11.5063 17.4739C11.3914 17.4911 11.2743 17.4856 11.1615 17.4575C11.0488 17.4295 10.9426 17.3795 10.8492 17.3104C10.7557 17.2413 10.6768 17.1546 10.6169 17.055C10.557 16.9554 10.5173 16.845 10.5001 16.7301V16.1001C10.4697 15.8151 10.4697 15.5277 10.5001 15.2426V14.7001C10.5001 11.8829 11.6192 9.181 13.6114 7.1889C15.6035 5.19679 18.3053 4.07764 21.1226 4.07764C23.9399 4.07764 26.6417 5.19679 28.6338 7.1889C30.6259 9.181 31.7451 11.8829 31.7451 14.7001C31.7451 14.7001 31.7451 14.9976 31.7451 15.3476C31.7419 15.6355 31.7126 15.9225 31.6576 16.2051L31.5001 16.6601C31.4695 16.8817 31.3536 17.0825 31.1771 17.2198C31.0006 17.3572 30.7774 17.4201 30.5551 17.3951Z" fill="#F38281"/>
<path d="M21.0001 38.0628C20.8853 38.0642 20.7715 38.0416 20.666 37.9964C20.5605 37.9511 20.4657 37.8844 20.3876 37.8003C11.1126 28.5253 10.5001 15.1553 10.3776 14.5953C10.3729 14.4804 10.3909 14.3656 10.4306 14.2577C10.4703 14.1497 10.5309 14.0507 10.6089 13.9661C10.6869 13.8816 10.7808 13.8133 10.8853 13.7651C10.9897 13.7169 11.1026 13.6898 11.2176 13.6853C11.3325 13.6806 11.4472 13.6986 11.5552 13.7383C11.6631 13.778 11.7622 13.8386 11.8467 13.9166C11.9312 13.9946 11.9996 14.0886 12.0477 14.193C12.0959 14.2974 12.1231 14.4104 12.1276 14.5253C12.1276 14.6478 12.8451 27.7903 21.6126 36.5753C21.6963 36.6539 21.763 36.7487 21.8086 36.8541C21.8542 36.9594 21.8777 37.073 21.8777 37.1878C21.8777 37.3026 21.8542 37.4162 21.8086 37.5215C21.763 37.6269 21.6963 37.7217 21.6126 37.8003C21.5344 37.8844 21.4396 37.9511 21.3341 37.9964C21.2286 38.0416 21.1148 38.0642 21.0001 38.0628Z" fill="#F38281"/>
<path d="M21.0001 38.0627C20.8853 38.0641 20.7716 38.0415 20.6661 37.9963C20.5606 37.9511 20.4657 37.8843 20.3876 37.8002C20.3039 37.7217 20.2372 37.6268 20.1916 37.5215C20.146 37.4161 20.1224 37.3025 20.1224 37.1877C20.1224 37.073 20.146 36.9594 20.1916 36.854C20.2372 36.7487 20.3039 36.6538 20.3876 36.5752C29.1376 27.8252 29.8551 14.6477 29.8726 14.5252C29.8664 14.4072 29.8863 14.2892 29.9309 14.1797C29.9755 14.0702 30.0436 13.9719 30.1305 13.8917C30.2173 13.8115 30.3208 13.7515 30.4335 13.7158C30.5462 13.6801 30.6654 13.6697 30.7826 13.6852C31.0131 13.6988 31.2295 13.8011 31.3861 13.9708C31.5428 14.1405 31.6275 14.3644 31.6226 14.5952C31.6226 15.1552 30.8876 28.5952 21.6126 37.8002C21.5345 37.8843 21.4396 37.9511 21.3341 37.9963C21.2286 38.0415 21.1149 38.0641 21.0001 38.0627Z" fill="#F38281"/>
</svg>

<svg width="42" height="42" fill="none" xmlns="http://www.w3.org/2000/svg"><path d="M20.685 20.265a5.705 5.705 0 1 1 0-11.41 5.705 5.705 0 0 1 0 11.41Zm0-9.66a3.955 3.955 0 1 0 0 7.91 3.955 3.955 0 0 0 0-7.91Z" fill="#F38281"/><path d="M30.555 17.395h-.14a.892.892 0 0 1-.665-.997v-.28a3.883 3.883 0 0 0 0-.368c.017-.18.017-.362 0-.542v-.683a8.873 8.873 0 0 0-17.745 0v.56c.049.233.131.457.245.665v.718a.885.885 0 0 1-1.75.262v-.63a4.043 4.043 0 0 1 0-.857V14.7a10.622 10.622 0 1 1 21.245 0v.648a4.766 4.766 0 0 1-.087.857l-.158.455a.858.858 0 0 1-.945.735Z" fill="#F38281"/><path d="M21 38.063a.823.823 0 0 1-.612-.263c-9.275-9.275-9.888-22.645-10.01-23.205a.874.874 0 1 1 1.75-.07c0 .123.717 13.265 9.485 22.05a.84.84 0 0 1 0 1.225.824.824 0 0 1-.613.263Z" fill="#F38281"/><path d="M21 38.063a.822.822 0 0 1-.612-.263.84.84 0 0 1 0-1.225c8.75-8.75 9.467-21.927 9.485-22.05a.804.804 0 0 1 .91-.84.893.893 0 0 1 .84.91c0 .56-.735 14-10.01 23.205a.822.822 0 0 1-.613.263Z" fill="#F38281"/></svg>
